**harmony	**harte	**kern	**silbe	**rhyme	**timestamp	**phrase
*M4/4	*M4/4	*ICvox	*	*	*	*
*	*	*VRlead	*	*	*	*
*	*	*Hstimme	*	*	*	*
*G:	*G:	*G:	*	*	*	*
*	*	*M4/4	*	*	*	*
*	*	*clefG2	*	*	*	*
1r;	1r	r;	.	.	0	.
=1	=1	=1	=1	=1	=1	=1
*>Letter>A	*>Letter>A	*>Letter>A	*>Letter>A	*>Letter>A	*>Letter>A	*>Letter>A
*>Label>Intro	*>Label>Intro	*>Label>Intro	*>Label>Intro	*>Label>Intro	*>Label>Intro	*>Label>Intro
1GM	G:maj	1r	.	.	0.163	newline
=2	=2	=2	=2	=2	=2	=2
1GM	G:maj	2r	.	.	1.581	.
.	.	4r	.	.	.	.
.	.	8r	.	.	.	.
.	.	8g	You	.	.	.
=3	=3	=3	=3	=3	=3	=3
*>Letter>B	*>Letter>B	*>Letter>B	*>Letter>B	*>Letter>B	*>Letter>B	*>Letter>B
*>Label>Verse	*>Label>Verse	*>Label>Verse	*>Label>Verse	*>Label>Verse	*>Label>Verse	*>Label>Verse
1GM	G:maj	4b	can't	.	3	newline
.	.	8b	roll-	.	.	.
.	.	8b	-er	.	.	.
.	.	4g	skate	.	.	.
.	.	8g	in	.	.	.
.	.	8g	a	.	.	.
=4	=4	=4	=4	=4	=4	=4
1GM	.	8d	buff-	.	4.355	.
.	.	8e	-a-	.	.	.
.	.	4d	-lo	.	.	.
.	.	4B	herd	.	.	.
.	.	8r	.	.	.	.
.	.	8d	you	.	.	.
=5	=5	=5	=5	=5	=5	=5
1DMm	D:7	4d	can't	.	5.709	.
.	.	8d	roll-	.	.	.
.	.	8d	-er	.	.	.
.	.	4f#	skate	.	.	.
.	.	8f#	in	.	.	.
.	.	8f#	a	.	.	.
=6	=6	=6	=6	=6	=6	=6
1DMm	D:7	8a	buff-	.	7.064	.
.	.	8g#	-a-	.	.	.
.	.	4a	-lo	.	.	.
.	.	4cc	herd	.	.	.
.	.	8r	.	.	.	.
.	.	8cc	you	.	.	.
=7	=7	=7	=7	=7	=7	=7
1GM	G:maj	4b	can't	.	8.419	newline
.	.	8b	roll-	.	.	.
.	.	8b	-er-	.	.	.
.	.	4g	-skate	.	.	.
.	.	8g	in	.	.	.
.	.	8g	a	.	.	.
=8	=8	=8	=8	=8	=8	=8
1GM	G:maj	8d	buff-	.	9.783	.
.	.	8e	-a-	.	.	.
.	.	4d	-lo	.	.	.
.	.	8d	herd	.	.	.
.	.	8B	_	.	.	.
.	.	8r	.	.	.	.
.	.	8B	but	.	.	.
=9	=9	=9	=9	=9	=9	=9
1DMm	D:7	8d	you	.	11.148	.
.	.	8d	can	.	.	.
.	.	4d	be	.	.	.
.	.	8f#	hap-	.	.	.
.	.	8e	-py	.	.	.
.	.	8e	if	.	.	.
.	.	[8d	you've	.	.	.
=10	=10	=10	=10	=10	=10	=10
1GM	G:maj	8d]	_	.	12.512	.
.	.	8d	a	.	.	.
.	.	4d	mind	.	.	.
.	.	4c	to	.	.	.
.	.	8r	.	.	.	.
.	.	8g	You	.	.	.
=11	=11	=11	=11	=11	=11	=11
1GM	G:maj	4b	can't	.	13.877	newline
.	.	8b	take	.	.	.
.	.	8b	a	.	.	.
.	.	8g	shower	.	.	.
.	.	8g	in	.	.	.
.	.	8g	a	.	.	.
.	.	[8d	para	.	.	.
=12	=12	=12	=12	=12	=12	=12
1GM	G:maj	8d]	_	.	15.185	.
.	.	4d	keet's	.	.	.
.	.	8d	cage	.	.	.
.	.	4B	_	.	.	.
.	.	8r	.	.	.	.
.	.	8B	you	.	.	.
=13	=13	=13	=13	=13	=13	=13
1DMm	D:7	4d	can't	.	16.493	.
.	.	8d	take	.	.	.
.	.	8d	a	.	.	.
.	.	4f#	shower	.	.	.
.	.	8f#	in	.	.	.
.	.	8f#	a	.	.	.
=14	=14	=14	=14	=14	=14	=14
1DMm	D:7	8a	par-	.	17.801	.
.	.	8g#	-a-	.	.	.
.	.	4a	-keet's	.	.	.
.	.	4cc	cage	.	.	.
.	.	8r	.	.	.	.
.	.	8cc	you	.	.	.
=15	=15	=15	=15	=15	=15	=15
1GM	G:maj	4b	can't	.	19.109	newline
.	.	8b	take	.	.	.
.	.	8b	a	.	.	.
.	.	4g	shower	.	.	.
.	.	8B	in	.	.	.
.	.	8d	a	.	.	.
=16	=16	=16	=16	=16	=16	=16
1GM	G:maj	8e	par-	.	20.471	.
.	.	8c	-a-	.	.	.
.	.	4d	-keet's	.	.	.
.	.	8d	cage	.	.	.
.	.	8B	_	.	.	.
.	.	8r	.	.	.	.
.	.	8B	but	.	.	.
=17	=17	=17	=17	=17	=17	=17
1DMm	D:7	8d	you	.	21.833	.
.	.	8d	can	.	.	.
.	.	4d	be	.	.	.
.	.	8f#	hap-	.	.	.
.	.	8a	-py	.	.	.
.	.	8f#	if	.	.	.
.	.	[8f#	you've	.	.	.
=18	=18	=18	=18	=18	=18	=18
1GM	G:maj	8f#]	_	.	23.195	.
.	.	8e	a	.	.	.
.	.	4.f#	mind	.	.	.
.	.	4e	to	.	.	.
.	.	8c	All	.	.	.
=19	=19	=19	=19	=19	=19	=19
*>Letter>C	*>Letter>C	*>Letter>C	*>Letter>C	*>Letter>C	*>Letter>C	*>Letter>C
*>Label>Chorus	*>Label>Chorus	*>Label>Chorus	*>Label>Chorus	*>Label>Chorus	*>Label>Chorus	*>Label>Chorus
1CM	C:maj	8g	_	.	24.557	newline
.	.	8g	you	A	.	.
.	.	8g	got-	.	.	.
.	.	8g	-ta	.	.	.
.	.	4g	do	A	.	.
.	.	8r	.	.	.	.
.	.	8e	is	.	.	.
=20	=20	=20	=20	=20	=20	=20
1GM	G:maj	8g	put	.	25.884	.
.	.	8g	your	.	.	.
.	.	4g	mind	.	.	.
.	.	16g	to	A	.	.
.	.	[8.b	it	.	.	.
.	.	8b]	_	.	.	.
.	.	8r	.	.	.	.
=21	=21	=21	=21	=21	=21	=21
1AMm	A:7	8a	knuck-	(B	27.21	.
.	.	8f#	-le	b)	.	.
.	.	4a	down	.	.	.
.	.	8a	buck-	(B	.	.
.	.	8f#	-le	b)	.	.
.	.	4a	down	.	.	.
=22	=22	=22	=22	=22	=22	=22
1DMm	D:7	16c#	do	.	28.537	.
.	.	8.d	it	.	.	.
.	.	16c#	do	.	.	.
.	.	8.d	it	.	.	.
.	.	16c#	do	.	.	.
.	.	8.d	it	.	.	.
.	.	8d	Well	.	.	.
.	.	8d	you	.	.	.
=23	=23	=23	=23	=23	=23	=23
*>Letter>B	*>Letter>B	*>Letter>B	*>Letter>B	*>Letter>B	*>Letter>B	*>Letter>B
*>Label>Verse	*>Label>Verse	*>Label>Verse	*>Label>Verse	*>Label>Verse	*>Label>Verse	*>Label>Verse
1GM	G:maj	4b	can't	.	29.863	newline
.	.	4b	go	.	.	.
.	.	8g	swimm-	.	.	.
.	.	8e	-in'	.	.	.
.	.	8g	in	.	.	.
.	.	8g	a	.	.	.
=24	=24	=24	=24	=24	=24	=24
1GM	G:maj	4d	base-	.	31.219	.
.	.	4d	-ball	.	.	.
.	.	8d	pool	.	.	.
.	.	8B	_	.	.	.
.	.	8r	.	.	.	.
.	.	8B	you	.	.	.
=25	=25	=25	=25	=25	=25	=25
1DMm	D:7	4d	can't	.	32.575	.
.	.	4d	go	.	.	.
.	.	8f#	swimm-	.	.	.
.	.	8f#	-in'	.	.	.
.	.	8f#	in	.	.	.
.	.	8f#	a	.	.	.
=26	=26	=26	=26	=26	=26	=26
1DMm	D:7	4a	base-	.	33.931	.
.	.	4a	-bass	.	.	.
.	.	4cc	pool	.	.	.
.	.	8r	.	.	.	.
.	.	8cc	you	.	.	.
=27	=27	=27	=27	=27	=27	=27
1GM	G:maj	4b	can't	.	35.287	newline
.	.	4b	go	.	.	.
.	.	8g	swimm-	.	.	.
.	.	8e	-in'	.	.	.
.	.	8g	in	.	.	.
.	.	8g	a	.	.	.
=28	=28	=28	=28	=28	=28	=28
1GM	G:maj	4d	base-	.	36.616	.
.	.	4d	-ball	.	.	.
.	.	8d	pool	.	.	.
.	.	8B	_	.	.	.
.	.	8r	.	.	.	.
.	.	8d	but	.	.	.
=29	=29	=29	=29	=29	=29	=29
1DMm	D:7	8d	you	.	37.944	.
.	.	8d	can	.	.	.
.	.	4d	be	.	.	.
.	.	8f#	hap-	.	.	.
.	.	8a	-py	.	.	.
.	.	8f#	if	.	.	.
.	.	[8f#	you've	.	.	.
=30	=30	=30	=30	=30	=30	=30
1GM	G:maj	8f#]	_	.	39.273	.
.	.	8g	a	.	.	.
.	.	4g	mind	.	.	.
.	.	4g	to	.	.	.
.	.	4r	.	.	.	.
=31	=31	=31	=31	=31	=31	=31
*>Letter>D	*>Letter>D	*>Letter>D	*>Letter>D	*>Letter>D	*>Letter>D	*>Letter>D
*>Label>Solo	*>Label>Solo	*>Label>Solo	*>Label>Solo	*>Label>Solo	*>Label>Solo	*>Label>Solo
1GM	G:maj	1r	.	.	40.601	newline
=32	=32	=32	=32	=32	=32	=32
1CM	C:maj	1r	.	.	41.954	.
=33	=33	=33	=33	=33	=33	=33
1DMm	D:7	1r	.	.	43.306	.
=34	=34	=34	=34	=34	=34	=34
1DMm	D:7	1r	.	.	44.659	.
=35	=35	=35	=35	=35	=35	=35
1GM	G:maj	1r	.	.	46.011	newline
=36	=36	=36	=36	=36	=36	=36
1CM	C:maj	1r	.	.	47.352	.
=37	=37	=37	=37	=37	=37	=37
1DMm	D:7	1r	.	.	48.693	.
=38	=38	=38	=38	=38	=38	=38
*M2/4	*M2/4	*M2/4	*	*	*M2/4	*M2/4
2DMm	D:7	2r	.	.	50.034	.
=39	=39	=39	=39	=39	=39	=39
*M4/4	*M4/4	*M4/4	*	*	*M4/4	*M4/4
1GM	G:maj	1r	.	.	50.705	.
=40	=40	=40	=40	=40	=40	=40
1GM	G:maj	2r	.	.	52.046	.
.	.	4r	.	.	.	.
.	.	8r	.	.	.	.
.	.	8g	You	.	.	.
=41	=41	=41	=41	=41	=41	=41
*>Letter>B	*>Letter>B	*>Letter>B	*>Letter>B	*>Letter>B	*>Letter>B	*>Letter>B
*>Label>Verse	*>Label>Verse	*>Label>Verse	*>Label>Verse	*>Label>Verse	*>Label>Verse	*>Label>Verse
1GM	G:maj	4b	can't	.	53.386	newline
.	.	4b	change	.	.	.
.	.	4g	film	.	.	.
.	.	8g	with	.	.	.
.	.	8g	a	.	.	.
=42	=42	=42	=42	=42	=42	=42
1GM	G:maj	8d	kid	.	54.73	.
.	.	4d	on	.	.	.
.	.	8d	your	.	.	.
.	.	8d	back	.	.	.
.	.	8B	_	.	.	.
.	.	8r	.	.	.	.
.	.	8B	you	.	.	.
=43	=43	=43	=43	=43	=43	=43
1DMm	D:7	4d	can't	.	56.073	.
.	.	4d	change	.	.	.
.	.	4f#	film	.	.	.
.	.	8f#	with	.	.	.
.	.	8f#	a	.	.	.
=44	=44	=44	=44	=44	=44	=44
1DMm	D:7	8a	kid	.	57.416	.
.	.	4a	on	.	.	.
.	.	8a	your	.	.	.
.	.	4cc	back	.	.	.
.	.	8r	.	.	.	.
.	.	8cc	you	.	.	.
=45	=45	=45	=45	=45	=45	=45
1GM	G:maj	4b	can't	.	58.759	newline
.	.	4b	change	.	.	.
.	.	4g	film	.	.	.
.	.	8g	with	.	.	.
.	.	8g	a	.	.	.
=46	=46	=46	=46	=46	=46	=46
1GM	G:maj	8d	kid	.	60.124	.
.	.	4d	on	.	.	.
.	.	8d	your	.	.	.
.	.	8d	back	.	.	.
.	.	8B	_	.	.	.
.	.	8r	.	.	.	.
.	.	8B	but	.	.	.
=47	=47	=47	=47	=47	=47	=47
1DMm	D:7	8d	you	.	61.488	.
.	.	8d	can	.	.	.
.	.	4d	be	.	.	.
.	.	8f#	hap-	.	.	.
.	.	8e	-py	.	.	.
.	.	8e	if	.	.	.
.	.	[8d	you've	.	.	.
=48	=48	=48	=48	=48	=48	=48
1GM	G:maj	8d]	_	.	62.852	.
.	.	8d	a	.	.	.
.	.	4d	mind	.	.	.
.	.	4c	to	.	.	.
.	.	8r	.	.	.	.
.	.	8d	You	.	.	.
=49	=49	=49	=49	=49	=49	=49
1GM	G:maj	4b	can't	.	64.217	newline
.	.	8b	drive	.	.	.
.	.	8b	a-	.	.	.
.	.	4g	-round	.	.	.
.	.	8g	with	.	.	.
.	.	8g	a	.	.	.
=50	=50	=50	=50	=50	=50	=50
1GM	G:maj	8d	tig-	.	65.528	.
.	.	8d	-er	.	.	.
.	.	8d	in	.	.	.
.	.	8d	your	.	.	.
.	.	8d	car	.	.	.
.	.	8B	_	.	.	.
.	.	8r	.	.	.	.
.	.	8B	you	.	.	.
=51	=51	=51	=51	=51	=51	=51
1DMm	D:7	4d	can't	.	66.84	.
.	.	8d	drive	.	.	.
.	.	8d	a-	.	.	.
.	.	4f#	-round	.	.	.
.	.	8f#	with	.	.	.
.	.	8f#	a	.	.	.
=52	=52	=52	=52	=52	=52	=52
1DMm	D:7	8a	tig-	.	68.151	.
.	.	8a	-er	.	.	.
.	.	8a	in	.	.	.
.	.	8a	your	.	.	.
.	.	8a	car	.	.	.
.	.	8dd	_	.	.	.
.	.	8r	.	.	.	.
.	.	8b	you	.	.	.
=53	=53	=53	=53	=53	=53	=53
1GM	G:maj	4dd	can't	.	69.463	newline
.	.	8b	drive	.	.	.
.	.	8g	a-	.	.	.
.	.	4b	-round	.	.	.
.	.	8d	with	.	.	.
.	.	8d	a	.	.	.
=54	=54	=54	=54	=54	=54	=54
1GM	G:maj	8g	tig-	.	70.862	.
.	.	8d	-er	.	.	.
.	.	8d	in	.	.	.
.	.	8B	your	.	.	.
.	.	8B	car	.	.	.
.	.	8d	_	.	.	.
.	.	8r	.	.	.	.
.	.	8B	but	.	.	.
=55	=55	=55	=55	=55	=55	=55
1DMm	D:7	8d	you	.	72.262	.
.	.	8d	can	.	.	.
.	.	4d	be	.	.	.
.	.	8f#	hap-	.	.	.
.	.	8a	-py	.	.	.
.	.	8f#	if	.	.	.
.	.	[8f#	you've	.	.	.
=56	=56	=56	=56	=56	=56	=56
1GM	G:maj	8f#]	_	.	73.661	.
.	.	8e	a	.	.	.
.	.	4.f#	mind	.	.	.
.	.	4e	to	.	.	.
.	.	8c	All	.	.	.
=57	=57	=57	=57	=57	=57	=57
*>Letter>C	*>Letter>C	*>Letter>C	*>Letter>C	*>Letter>C	*>Letter>C	*>Letter>C
*>Label>Chorus	*>Label>Chorus	*>Label>Chorus	*>Label>Chorus	*>Label>Chorus	*>Label>Chorus	*>Label>Chorus
1CM	C:maj	8g	_	.	75.061	newline
.	.	8g	you	A	.	.
.	.	8g	got-	.	.	.
.	.	8g	-ta	.	.	.
.	.	4g	do	A	.	.
.	.	8r	.	.	.	.
.	.	8e	is	.	.	.
=58	=58	=58	=58	=58	=58	=58
1GM	G:maj	8g	put	.	76.376	.
.	.	8g	your	.	.	.
.	.	4g	mind	.	.	.
.	.	16g	to	A	.	.
.	.	[8.b	it	.	.	.
.	.	8b]	_	.	.	.
.	.	8r	.	.	.	.
=59	=59	=59	=59	=59	=59	=59
1AMm	A:7	8a	knuck-	(B	77.69	.
.	.	8f#	-le	b)	.	.
.	.	4a	down	.	.	.
.	.	8a	buck-	(B	.	.
.	.	8f#	-le	b)	.	.
.	.	4a	down	.	.	.
=60	=60	=60	=60	=60	=60	=60
1DMm	D:7	16c#	do	.	79.005	.
.	.	8.d	it	.	.	.
.	.	16c#	do	.	.	.
.	.	8.d	it	.	.	.
.	.	16c#	do	.	.	.
.	.	8.d	it	.	.	.
.	.	8d	Well	.	.	.
.	.	8d	you	.	.	.
=61	=61	=61	=61	=61	=61	=61
*>Letter>B	*>Letter>B	*>Letter>B	*>Letter>B	*>Letter>B	*>Letter>B	*>Letter>B
*>Label>Verse	*>Label>Verse	*>Label>Verse	*>Label>Verse	*>Label>Verse	*>Label>Verse	*>Label>Verse
1GM	G:maj	4b	can't	.	80.32	newline
.	.	8b	roll-	.	.	.
.	.	8b	-er	.	.	.
.	.	4g	skate	.	.	.
.	.	8g	in	.	.	.
.	.	8g	a	.	.	.
=62	=62	=62	=62	=62	=62	=62
1GM	G:maj	8d	buff-	.	81.666	.
.	.	8e	-a-	.	.	.
.	.	4d	-lo	.	.	.
.	.	4B	herd	.	.	.
.	.	8r	.	.	.	.
.	.	8d	you	.	.	.
=63	=63	=63	=63	=63	=63	=63
1DMm	D:7	4d	can't	.	83.013	.
.	.	8d	roll-	.	.	.
.	.	8d	-er	.	.	.
.	.	4f#	skate	.	.	.
.	.	8f#	in	.	.	.
.	.	8f#	a	.	.	.
=64	=64	=64	=64	=64	=64	=64
1DMm	D:7	8a	buff-	.	84.359	.
.	.	8g#	-a-	.	.	.
.	.	4a	-lo	.	.	.
.	.	4cc	herd	.	.	.
.	.	8r	.	.	.	.
.	.	8cc	you	.	.	.
=65	=65	=65	=65	=65	=65	=65
1GM	G:maj	4b	can't	.	85.705	newline
.	.	8b	roll-	.	.	.
.	.	8b	-er-	.	.	.
.	.	4g	-skate	.	.	.
.	.	8g	in	.	.	.
.	.	8g	a	.	.	.
=66	=66	=66	=66	=66	=66	=66
1GM	G:maj	8d	buff-	.	87.071	.
.	.	8e	-a-	.	.	.
.	.	4d	-lo	.	.	.
.	.	8d	herd	.	.	.
.	.	8B	_	.	.	.
.	.	8r	.	.	.	.
.	.	8B	but	.	.	.
=67	=67	=67	=67	=67	=67	=67
1DMm	D:7	8d	you	.	88.437	.
.	.	8d	can	.	.	.
.	.	4d	be	.	.	.
.	.	8f#	hap-	.	.	.
.	.	8e	-py	.	.	.
.	.	8e	if	.	.	.
.	.	[8d	you've	.	.	.
=68	=68	=68	=68	=68	=68	=68
1GM	G:maj	8d]	_	.	89.802	.
.	.	8d	a	.	.	.
.	.	4d	mind	.	.	.
.	.	4c	to	.	.	.
.	.	8r	.	.	.	.
.	.	8d	You	.	.	.
=69	=69	=69	=69	=69	=69	=69
1GM	G:maj	4b	can't	.	91.168	newline
.	.	4b	go	.	.	.
.	.	8g	fish-	.	.	.
.	.	8g	-in'	.	.	.
.	.	8g	in	.	.	.
.	.	8g	a	.	.	.
=70	=70	=70	=70	=70	=70	=70
1GM	G:maj	8d	wat-	.	92.494	.
.	.	8d	-er-	.	.	.
.	.	8d	-mel-	.	.	.
.	.	8d	-on	.	.	.
.	.	8d	patch	.	.	.
.	.	8B	_	.	.	.
.	.	8r	.	.	.	.
.	.	8B	you	.	.	.
=71	=71	=71	=71	=71	=71	=71
1DMm	D:7	4d	can't	.	93.819	.
.	.	4d	go	.	.	.
.	.	8f#	fish-	.	.	.
.	.	8f#	-in'	.	.	.
.	.	8f#	in	.	.	.
.	.	8f#	a	.	.	.
=72	=72	=72	=72	=72	=72	=72
1DMm	D:7	8a	wat-	.	95.144	.
.	.	8a	-er-	.	.	.
.	.	8a	-mel-	.	.	.
.	.	8a	-on	.	.	.
.	.	8a	patch	.	.	.
.	.	8dd	_	.	.	.
.	.	8r	.	.	.	.
.	.	8d	You	.	.	.
=73	=73	=73	=73	=73	=73	=73
1GM	G:maj	4b	can't	.	96.47	newline
.	.	4b	go	.	.	.
.	.	8dd	fish-	.	.	.
.	.	8b	-in'	.	.	.
.	.	8a	in	.	.	.
.	.	8g	a	.	.	.
=74	=74	=74	=74	=74	=74	=74
1GM	G:maj	8d	wat-	.	97.835	.
.	.	8e	-er-	.	.	.
.	.	8d	-mel-	.	.	.
.	.	8c	-on	.	.	.
.	.	4B	patch	.	.	.
.	.	8r	.	.	.	.
.	.	8d	but	.	.	.
=75	=75	=75	=75	=75	=75	=75
1DMm	D:7	8d	you	.	99.2	.
.	.	8d	can	.	.	.
.	.	4d	be	.	.	.
.	.	8f#	hap-	.	.	.
.	.	8a	-py	.	.	.
.	.	8f#	if	.	.	.
.	.	[8f#	you've	.	.	.
=76	=76	=76	=76	=76	=76	=76
1GM	G:maj	8f#]	_	.	100.565	.
.	.	8g	a	.	.	.
.	.	4g	mind	.	.	.
.	.	4g	to	.	.	.
.	.	8r	.	.	.	.
.	.	8g	You	.	.	.
=77	=77	=77	=77	=77	=77	=77
1GM	G:maj	4b	can't	.	101.93	newline
.	.	8b	roll-	.	.	.
.	.	8b	-er	.	.	.
.	.	4g	skate	.	.	.
.	.	8d	in	.	.	.
.	.	8d	a	.	.	.
=78	=78	=78	=78	=78	=78	=78
1GM	G:maj	8g	buff-	.	103.277	.
.	.	8g	-a-	.	.	.
.	.	8g	-lo	.	.	.
.	.	8g	herd	.	.	.
.	.	4d	_	.	.	.
.	.	8r	.	.	.	.
.	.	8d	you	.	.	.
=79	=79	=79	=79	=79	=79	=79
1DMm	D:7	4g	can't	.	104.625	.
.	.	8g	rol-	.	.	.
.	.	8g	-ler	.	.	.
.	.	8g	skate	.	.	.
.	.	8b	_	.	.	.
.	.	8b	in	.	.	.
.	.	8dd	a	.	.	.
=80	=80	=80	=80	=80	=80	=80
1DMm	D:7	8cc	buff-	.	105.972	.
.	.	8cc	-a-	.	.	.
.	.	4b	-lo	.	.	.
.	.	4g	herd	.	.	.
.	.	8r	.	.	.	.
.	.	8g	You	.	.	.
=81	=81	=81	=81	=81	=81	=81
1GM	G:maj	4b	can't	.	107.151	newline
.	.	8b	roll-	.	.	.
.	.	8b	-er	.	.	.
.	.	4g	skate	.	.	.
.	.	8d	in	.	.	.
.	.	8d	a	.	.	.
=82	=82	=82	=82	=82	=82	=82
1GM	G:maj	8g	buff-	.	.	.
.	.	8g	-a-	.	.	.
.	.	8g	-lo	.	.	.
.	.	8g	herd	.	.	.
.	.	4d	_	.	.	.
.	.	8r	.	.	.	.
.	.	8B	but	.	.	.
=83	=83	=83	=83	=83	=83	=83
1DMm	D:7	8d	you	.	.	.
.	.	8d	can	.	.	.
.	.	4d	be	.	.	.
.	.	8f#	hap-	.	.	.
.	.	8e	-py	.	.	.
.	.	8e	if	.	.	.
.	.	[8d	you've	.	.	.
=84	=84	=84	=84	=84	=84	=84
1GM	G:maj	8d]	_	.	.	.
.	.	8d	a	.	.	.
.	.	4d	mind	.	.	.
.	.	4c	to	.	.	.
.	.	4r	.	.	.	.
1r;	1r	r;	.	.	107.319	.
1r;	1r	r;	.	.	112.28	.
*-	*-	*-	*-	*-	*-	*-
!!!BillboardChartDate: 1966/07/30, 1966/07/30
!!!BillboardPeak: 40, 40
!!!BillboardWeeksOnChart: 6, 6
!!!COC: Roger Miller
!!!EMD: The "N" (no chord) label is really cadence on tonic GM. 
!!!ENC: Nathaniel Condit-Schultz
!!!EST: Awating manual error checking and editing.
!!!OTL: You Can't Roller Skate In A Buffalo Herd
!!!RDF**chordsym: original McGill chord annotation + (implied pitch class set, with bass pitch in first position)
!!!RDF**harmony: **recip + pitch class of root + harmonic quality
!!!RDF**leadinstrument: original McGill primary instrumentation annotation
!!!RDF**phrase: newline = linebreak in original McGill transcription
!!!RDF**timestamp: McGill audio timestamp in seconds
!!!RDT: 2017/01/12/
!!!SampleActualRank: 43, 43
!!!SampleID#: 308, 669
!!!SampleTargetRank: 42, 43
!!!MBID: bb470b8f-ab52-46b2-a3f6-0c5cfee71040
